img/svgicons/lorry.svg

<svg width="45" height="45" viewBox="0 0 45 45" fill="none" xmlns="http://www.w3.org/2000/svg">
<g clip-path="url(#clip0_303_106)">
<path d="M10.5 30.75C9.2574 30.75 8.25 31.7574 8.25 33C8.25 34.2426 9.25731 35.25 10.5 35.25C11.7427 35.25 12.75 34.2427 12.75 33C12.7486 31.758 11.7421 30.7513 10.5 30.75ZM10.5 33.75C10.0858 33.75 9.75003 33.4143 9.75003 33C9.75003 32.5858 10.0858 32.2501 10.5 32.2501C10.9142 32.2501 11.25 32.5858 11.25 33C11.2495 33.4141 10.9141 33.7496 10.5 33.75Z" fill="#C4C4C4"/>
<path d="M34.5 30.75C33.2574 30.75 32.25 31.7574 32.25 33C32.25 34.2426 33.2574 35.25 34.5 35.25C35.7426 35.25 36.75 34.2427 36.75 33C36.7487 31.758 35.7421 30.7513 34.5 30.75ZM34.5 33.75C34.0858 33.75 33.75 33.4143 33.75 33C33.75 32.5858 34.0859 32.2501 34.5 32.2501C34.9142 32.2501 35.25 32.5858 35.25 33C35.2496 33.4141 34.9141 33.7496 34.5 33.75Z" fill="#C4C4C4"/>
<path d="M44.4284 20.0742L39.2619 14.2559C38.8339 13.7739 38.2197 13.4987 37.5751 13.5H30.75V9C30.7487 7.75793 29.7421 6.75132 28.5 6.75H2.25C1.00793 6.75132 0.00131843 7.75793 7.32452e-08 9V28.5C-8.78174e-05 28.6989 0.0789259 28.8897 0.219639 29.0305C0.360264 29.1711 0.551074 29.2501 0.750059 29.2501H1.50003V31.5001C1.50135 32.7422 2.50796 33.7488 3.75003 33.7501H5.30991C5.67958 36.3323 7.89144 38.2501 10.5 38.2501C13.1086 38.2501 15.3205 36.3323 15.6901 33.7501H29.31C29.6797 36.3323 31.8916 38.2501 34.5001 38.2501C37.1087 38.2501 39.3206 36.3323 39.6903 33.7501H42.75C43.9921 33.7488 44.9987 32.7422 45 31.5001V21.5699C44.9995 21.018 44.796 20.4857 44.4284 20.0742ZM1.50003 27.75V9C1.50047 8.58595 1.83595 8.25038 2.25 8.25003H28.5C28.9141 8.25047 29.2496 8.58595 29.25 9V27.75H1.50003ZM5.30991 32.25H3.75003C3.33598 32.2495 3.00041 31.9141 3.00006 31.5V29.25H6.83297C6.00908 30.0553 5.47374 31.1097 5.30991 32.25ZM10.5 36.75C8.42897 36.75 6.75 35.071 6.75 32.9999C6.75 30.9289 8.42897 29.25 10.5 29.25C12.5711 29.25 14.2501 30.929 14.2501 33C14.2476 35.07 12.57 36.7476 10.5 36.75ZM18 32.25H15.6901C15.5262 31.1097 14.991 30.0552 14.1671 29.25H18V32.25ZM24.75 32.25H19.5V29.25H24.75V32.25ZM29.3099 32.25H26.25V29.25H30.8329C30.009 30.0553 29.4738 31.1097 29.3099 32.25ZM34.5 36.75C32.4289 36.75 30.7499 35.071 30.7499 32.9999C30.7499 30.9289 32.4288 29.2499 34.5 29.2499C36.571 29.2499 38.25 30.9289 38.25 32.9999C38.2475 35.07 36.5701 36.7476 34.5 36.75ZM43.5 31.5C43.4995 31.9141 43.1641 32.2496 42.75 32.25H39.6901C39.3161 29.6701 37.1069 27.7546 34.5 27.75H30.7499V15H33.75V22.5C33.7513 23.7421 34.7579 24.7487 36 24.75H43.5V31.5ZM43.5 23.25H36C35.5859 23.2495 35.2504 22.9141 35.25 22.5V15H37.5751C37.7904 14.9988 37.9959 15.09 38.1394 15.2505L43.3078 21.0711C43.4308 21.2082 43.4992 21.3856 43.5001 21.5699V23.25H43.5Z" fill="#C4C4C4"/>
<g clip-path="url(#clip1_303_106)">
<path d="M19.6233 12.8572C19.3721 12.5549 18.5822 11.5387 18.582 11.5383C18.5141 11.4515 18.4036 11.4098 18.2952 11.4313C18.2952 11.4313 17.0335 11.6801 16.6454 11.742C13.403 12.2582 11.3042 13.9051 10.2295 16.7765C8.73113 20.7795 11.7008 23.8651 13.5462 24.5558C15.3916 25.2466 19.6575 24.8692 21.1558 20.8662C22.2258 18.0077 21.7244 15.3878 19.6233 12.8572ZM13.7507 24.0095C12.0899 23.3879 9.42025 20.6025 10.7758 16.981C11.7705 14.3235 13.7203 12.7982 16.7373 12.318C17.04 12.2698 17.8674 12.1094 18.232 12.0381C18.46 12.3308 18.9789 12.9944 19.1745 13.23C21.1305 15.5853 21.5997 18.0163 20.6096 20.6618C19.2264 24.3572 15.1976 24.5511 13.7507 24.0095Z" fill="#C4C4C4"/>
<path d="M20.3704 19.6359C20.6499 18.8892 20.4648 18.0599 19.9131 17.4985C19.9435 17.4375 19.9703 17.3767 19.9935 17.3148C20.3881 16.2605 19.8513 15.0815 18.797 14.6869C18.7026 14.6516 18.6075 14.6254 18.5124 14.6072C18.4009 14.5873 18.2748 14.5124 18.2486 14.3694C18.1581 13.8718 18.022 13.2898 18.022 13.2898C17.9775 13.0998 17.7257 13.0055 17.5674 13.1196C17.5483 13.1335 17.0961 13.4599 16.7234 13.787C16.6066 13.8892 16.4547 13.8604 16.3506 13.8004C16.261 13.748 16.1665 13.7023 16.0654 13.6645C15.0112 13.2699 13.8322 13.8067 13.4376 14.8609C13.4144 14.9228 13.3946 14.9863 13.3775 15.0523C12.5928 15.1134 11.9087 15.6174 11.6292 16.3641C11.4389 16.8725 11.4638 17.4341 11.6939 17.9302C11.64 18.0238 11.5966 18.1155 11.5621 18.2075C11.279 18.9638 11.4753 19.8125 12.0482 20.3742C11.8924 21.3275 12.4242 22.2674 13.3399 22.6101C13.6232 22.7162 13.9223 22.7548 14.2309 22.7259C14.4446 22.9503 14.6956 23.1176 14.9789 23.2236C15.8947 23.5664 16.9128 23.2066 17.4213 22.3854C18.2222 22.3378 18.9275 21.8266 19.2106 21.0704C19.245 20.9783 19.2725 20.8806 19.2933 20.7747C19.7926 20.5516 20.1801 20.1443 20.3704 19.6359ZM14.1403 22.136C13.9336 22.1502 13.7323 22.1341 13.5445 22.0638C12.8514 21.8044 12.4671 21.0638 12.6505 20.3415C12.6579 20.3123 12.6492 20.2839 12.6475 20.2547C12.6633 20.2334 12.6801 20.2129 12.6899 20.1868C12.7483 20.0307 12.8313 19.8876 12.9369 19.7616C13.0402 19.6382 13.024 19.4542 12.9003 19.3507C12.7781 19.2481 12.5926 19.2635 12.4894 19.3873C12.4024 19.4912 12.33 19.6054 12.2655 19.7245C12.0097 19.3418 11.9427 18.8548 12.1084 18.412C12.1452 18.3139 12.1968 18.2173 12.2706 18.1078C12.333 18.0159 12.3376 17.8962 12.2825 17.7999C12.0644 17.4181 12.0256 16.9692 12.1755 16.5686C12.361 16.0732 12.7984 15.7311 13.3104 15.6507C13.3405 16.4494 13.84 17.1916 14.634 17.4888C14.785 17.5453 14.9529 17.4688 15.0094 17.3178C15.0659 17.1668 14.9895 16.9989 14.8385 16.9424C14.1893 16.6994 13.8175 16.04 13.9071 15.3803C13.9072 15.3799 13.9074 15.3796 13.9074 15.3796C13.9235 15.2624 13.9485 15.1598 13.9839 15.0654C14.2658 14.3123 15.1078 13.929 15.8609 14.2108C15.93 14.2367 15.9951 14.2683 16.0557 14.3038C16.4017 14.5057 16.8104 14.4777 17.0991 14.231L14.1402 22.136L14.1403 22.136ZM18.9349 20.2899C18.83 20.3263 18.755 20.4196 18.7417 20.5299C18.7255 20.661 18.701 20.7677 18.6643 20.8659C18.4987 21.3081 18.1291 21.6313 17.6857 21.7522C17.8477 21.0189 17.5954 20.2421 17.0098 19.7493C16.8849 19.6451 16.7024 19.6613 16.5988 19.7847C16.4951 19.908 16.5108 20.092 16.6341 20.1957C17.105 20.5918 17.2764 21.2457 17.0719 21.796L16.9885 21.9652C16.6525 22.6305 15.8764 22.9367 15.1833 22.6772C14.9955 22.6069 14.8331 22.4869 14.6865 22.3405L17.6599 14.3968C17.6647 14.4225 17.6701 14.4487 17.6748 14.474C17.7398 14.8301 18.0266 15.1078 18.402 15.1799C18.4658 15.1922 18.5295 15.2097 18.5925 15.2332C19.3455 15.5151 19.7289 16.3572 19.4471 17.1102C19.4125 17.2027 19.3644 17.2946 19.3018 17.391C19.165 17.6021 18.9779 17.7774 18.7509 17.8944C18.6077 17.9682 18.5515 18.1443 18.6254 18.2875C18.66 18.3543 18.7168 18.4023 18.7825 18.4268C18.8569 18.4547 18.9423 18.4523 19.0185 18.413C19.2275 18.3051 19.4112 18.1603 19.569 17.9917C19.9038 18.3886 20.0098 18.935 19.824 19.4313C19.6741 19.8321 19.3501 20.1451 18.9349 20.2899Z" fill="#C4C4C4"/>
</g>
</g>
<defs>
<clipPath id="clip0_303_106">
<rect width="45" height="45" fill="white"/>
</clipPath>
<clipPath id="clip1_303_106">
<rect width="14" height="14" fill="white" transform="translate(11.8979 8.99036) rotate(20.521)"/>
</clipPath>
</defs>
</svg>

<svg width="45" height="45" fill="none" xmlns="http://www.w3.org/2000/svg"><g clip-path="url(#a)" fill="#C4C4C4"><path d="M10.5 30.75a2.25 2.25 0 1 0 0 4.5 2.25 2.25 0 0 0 0-4.5Zm0 3a.75.75 0 1 1 0-1.5.75.75 0 0 1 0 1.5ZM34.5 30.75a2.25 2.25 0 1 0 0 4.5 2.25 2.25 0 0 0 0-4.5Zm0 3a.75.75 0 1 1 0-1.5.75.75 0 0 1 0 1.5Z"/><path d="m44.428 20.074-5.166-5.818a2.25 2.25 0 0 0-1.687-.756H30.75V9a2.252 2.252 0 0 0-2.25-2.25H2.25A2.252 2.252 0 0 0 0 9v19.5a.75.75 0 0 0 .75.75h.75v2.25a2.252 2.252 0 0 0 2.25 2.25h1.56a5.243 5.243 0 0 0 10.38 0h13.62a5.243 5.243 0 0 0 10.38 0h3.06A2.252 2.252 0 0 0 45 31.5v-9.93c0-.552-.204-1.084-.572-1.496ZM1.5 27.75V9a.75.75 0 0 1 .75-.75H28.5a.75.75 0 0 1 .75.75v18.75H1.5Zm3.81 4.5H3.75A.75.75 0 0 1 3 31.5v-2.25h3.833a5.236 5.236 0 0 0-1.523 3Zm5.19 4.5a3.75 3.75 0 1 1 0-7.5 3.75 3.75 0 0 1 0 7.5Zm7.5-4.5h-2.31a5.236 5.236 0 0 0-1.523-3H18v3Zm6.75 0H19.5v-3h5.25v3Zm4.56 0h-3.06v-3h4.583a5.237 5.237 0 0 0-1.523 3Zm5.19 4.5a3.75 3.75 0 1 1 0-7.5 3.75 3.75 0 0 1 0 7.5Zm9-5.25a.75.75 0 0 1-.75.75h-3.06a5.254 5.254 0 0 0-5.19-4.5h-3.75V15h3v7.5A2.252 2.252 0 0 0 36 24.75h7.5v6.75Zm0-8.25H36a.75.75 0 0 1-.75-.75V15h2.325c.215-.001.42.09.564.25l5.169 5.821a.752.752 0 0 1 .192.499v1.68Z"/><g clip-path="url(#b)"><path d="M19.623 12.857a91.945 91.945 0 0 1-1.041-1.319.292.292 0 0 0-.287-.107s-1.262.25-1.65.311c-3.242.516-5.34 2.163-6.415 5.034-1.499 4.003 1.47 7.09 3.316 7.78 1.846.69 6.111.313 7.61-3.69 1.07-2.858.568-5.478-1.533-8.009ZM13.751 24.01c-1.661-.621-4.33-3.407-2.975-7.028.995-2.658 2.944-4.183 5.961-4.663.303-.048 1.13-.209 1.495-.28.228.293.747.956.942 1.192 1.957 2.355 2.426 4.786 1.436 7.432-1.384 3.695-5.412 3.89-6.86 3.348Z"/><path d="M20.37 19.636a2.03 2.03 0 0 0-.457-2.137 2.044 2.044 0 0 0-1.116-2.812 1.751 1.751 0 0 0-.285-.08c-.111-.02-.237-.095-.263-.238-.09-.497-.227-1.08-.227-1.08-.044-.19-.296-.284-.455-.17-.019.014-.47.34-.844.668-.116.102-.268.073-.372.013a1.839 1.839 0 0 0-.286-.136 2.044 2.044 0 0 0-2.688 1.388 2.03 2.03 0 0 0-1.748 1.312c-.19.508-.165 1.07.065 1.566a1.869 1.869 0 0 0-.132.277 2.037 2.037 0 0 0 .486 2.167 2.033 2.033 0 0 0 1.292 2.236c.283.106.582.145.89.116.215.224.466.392.749.498a2.034 2.034 0 0 0 2.442-.839 2.037 2.037 0 0 0 1.79-1.315c.034-.092.062-.19.082-.295.5-.223.887-.63 1.077-1.14Zm-6.23 2.5a1.41 1.41 0 0 1-.596-.072c-.693-.26-1.077-1-.894-1.723.008-.029 0-.057-.002-.086.015-.022.032-.042.042-.068.058-.156.141-.3.247-.425a.292.292 0 1 0-.448-.375c-.087.104-.159.218-.224.337a1.448 1.448 0 0 1-.157-1.312c.037-.098.089-.195.163-.304a.291.291 0 0 0 .011-.308 1.452 1.452 0 0 1-.107-1.231 1.444 1.444 0 0 1 1.135-.918c.03.798.53 1.54 1.324 1.838a.292.292 0 1 0 .204-.547 1.46 1.46 0 0 1 1.023-2.731c.069.026.134.057.195.093.346.202.754.174 1.043-.073l-2.959 7.905Zm4.795-1.846a.29.29 0 0 0-.193.24c-.017.131-.041.238-.078.336a1.448 1.448 0 0 1-.978.886 2.044 2.044 0 0 0-.676-2.003.291.291 0 1 0-.376.447c.471.396.642 1.05.438 1.6l-.084.17a1.452 1.452 0 0 1-1.805.711 1.41 1.41 0 0 1-.496-.337l2.973-7.943.015.077a.894.894 0 0 0 .727.706c.064.012.127.03.19.053a1.46 1.46 0 0 1 .855 1.877 1.446 1.446 0 0 1-.145.281 1.449 1.449 0 0 1-.551.503.292.292 0 1 0 .267.519c.21-.108.393-.253.551-.421.335.397.44.943.255 1.44-.15.4-.474.713-.89.858Z"/></g></g><defs><clipPath id="a"><path fill="#fff" d="M0 0h45v45H0z"/></clipPath><clipPath id="b"><path fill="#fff" transform="rotate(20.521 -18.884 37.359)" d="M0 0h14v14H0z"/></clipPath></defs></svg>
